!!!OTL: 404. Lindenlaub.
!!!ODT: 1540
!!!ARE: Europa, Mitteleuropa, Deutschland
!!!SCT: E0404
!!!TXL: @@DE
!!!YEM: Copyright 1995, estate of Helmut Schaffrath.
**kern	**text
*ICvox	*
*M3/4	*
*met(3)	*
*k[b-]	*
*F:	*
=1	=1
!LO:TX:a:t=Mel. 1549.	!
2r	.
{4f	Drei
=2	=2
2f	Laub
4f	auf
=3	=3
2f	ei-
4g	-ner
=4	=4
2.a	Lin-
=5	=5
2.cc}	-den
=6	=6
{2f	blü-
4f	-hen
=7	=7
2f	al-
4e	-ſo
=8	=8
(2.d	wohl,
=9	=9
2c)}	.
{4cc	ja
=10	=10
(2.cc	wohl;
=11	=11
2a)}	.
{4a	ſie
=12	=12
2dd	thät
4cc	viel
=13	=13
2b-/	tau-
4a	-ſend
=14	=14
2.g	Sprün-
=15	=15
2a}	-ge,
{4a	ihr
=16	=16
2f	Herʒ
4f	war
=17	=17
2b-	freu-
4b-	-den-
=18	=18
(4.g	-voll,
8a	.
4b-	.
=19	=19
2cc)}	.
{4cc	ich
=20	=20
2cc	günns
4b-	dem
=21	=21
4a	Maid-
2g	-lein
=22	=22
2.f;}	wohl.
==	==
!!!AGN: Liebes - Lied
!!!ONB: ESAC (Essen Associative Code) Database: ERK1
!!!AMT: simple triple
!!!AIN: vox
!!!EED: Helmut Schaffrath
!!!EEV: 1.0
!!!GTL: Liebeslieder [Alte (aus dem 13. bis 17. Jahrh.) mit ihrem jungen Nachwuchs]
!!!URL-scan: https://rosdok.uni-rostock.de/mcrviewer/recordIdentifier/rosdok_ppn745177662/iview2/phys_0219.iview2?x=-2131.6244019138758&y=149.3837320471648&scale=0.23831242873432154&rotation=0&layout=singlePageLayout
!!!ENC: Anna Maria Matuszewska
!!!EEV: 2024/09/12
*-	*-
